src/images/icon/icon_color_devspace.svg

<svg height="80" viewBox="0 0 80 80" width="80" xmlns="http://www.w3.org/2000/svg" xmlns:xlink="http://www.w3.org/1999/xlink"><defs><linearGradient id="a" x1="-3.093922%" x2="84.222927%" y1="-7.837655%" y2="88.349991%"><stop offset="0" stop-color="#a974ff"/><stop offset="1" stop-color="#49a5ff"/></linearGradient><circle id="b" cx="40" cy="40" r="24"/><filter id="c" height="183.3%" width="183.3%" x="-41.7%" y="-33.3%"><feOffset dx="0" dy="4" in="SourceAlpha" result="shadowOffsetOuter1"/><feGaussianBlur in="shadowOffsetOuter1" result="shadowBlurOuter1" stdDeviation="6"/><feColorMatrix in="shadowBlurOuter1" type="matrix" values="0 0 0 0 0.305882353   0 0 0 0 0.639215686   0 0 0 0 1  0 0 0 0.4 0"/></filter><circle id="d" cx="40" cy="40" r="15"/><filter id="e" height="146.7%" width="146.7%" x="-23.3%" y="-16.7%"><feOffset dx="0" dy="2" in="SourceAlpha" result="shadowOffsetOuter1"/><feGaussianBlur in="shadowOffsetOuter1" result="shadowBlurOuter1" stdDeviation="2"/><feColorMatrix in="shadowBlurOuter1" type="matrix" values="0 0 0 0 0.211764706   0 0 0 0 0.262745098   0 0 0 0 0.360784314  0 0 0 0.15 0"/></filter></defs><g fill="none" fill-rule="evenodd"><g><use fill="#000" filter="url(#c)" xlink:href="#b"/><use fill="url(#a)" fill-rule="evenodd" xlink:href="#b"/></g><circle cx="40" cy="40" fill="#fff" opacity=".5" r="18"/><g><use fill="#000" filter="url(#e)" xlink:href="#d"/><use fill="#fff" fill-rule="evenodd" xlink:href="#d"/></g><g transform="translate(30 30)"><path d="m9.37575757 2c2.21515153 0 4.12424243 1.2825 5.04242423 3.1425 2.2735875.13557037 4.2035331 1.54497722 5.0790498 3.5265085-.3659532-.4134228-.9011382-.67420291-1.4972316-.67420291h-8c-1.1045695 0-2 .8954305-2 2v5.00519441c0 1.1045695.8954305 2 2 2l4.418-.001-.0422424.001h-9.3757576c-2.78878788-.1521875-5-2.33875-5-5 0-2.25625 1.58909091-4.163125 3.77121212-4.785.21060606-2.9140625 2.63666666-5.215 5.60454545-5.215z" fill="#52a0ff" fill-rule="nonzero"/><g stroke="#52a0ff" stroke-width="2"><path d="m13.1745386 15.8401964-2.7704855-3 2.7704855-2.99999997"/><path d="m15.8588923 15.8401964 2.7704855-3-2.7704855-2.99999997"/></g></g></g></svg>

<?xml version="1.0" encoding="UTF-8"?>
<svg width="80px" height="80px" viewBox="0 0 80 80" version="1.1" xmlns="http://www.w3.org/2000/svg" xmlns:xlink="http://www.w3.org/1999/xlink">
    
    <defs>
        <linearGradient x1="-3.09392193%" y1="-7.8376551%" x2="84.2229272%" y2="88.349991%" id="linearGradient-1">
            <stop stop-color="#A974FF" offset="0%"></stop>
            <stop stop-color="#49A5FF" offset="100%"></stop>
        </linearGradient>
        <circle id="path-2" cx="40" cy="40" r="24"></circle>
        <filter x="-41.7%" y="-33.3%" width="183.3%" height="183.3%" filterUnits="objectBoundingBox" id="filter-3">
            <feOffset dx="0" dy="4" in="SourceAlpha" result="shadowOffsetOuter1"></feOffset>
            <feGaussianBlur stdDeviation="6" in="shadowOffsetOuter1" result="shadowBlurOuter1"></feGaussianBlur>
            <feColorMatrix values="0 0 0 0 0.305882353   0 0 0 0 0.639215686   0 0 0 0 1  0 0 0 0.4 0" type="matrix" in="shadowBlurOuter1"></feColorMatrix>
        </filter>
        <circle id="path-4" cx="40" cy="40" r="15"></circle>
        <filter x="-23.3%" y="-16.7%" width="146.7%" height="146.7%" filterUnits="objectBoundingBox" id="filter-5">
            <feOffset dx="0" dy="2" in="SourceAlpha" result="shadowOffsetOuter1"></feOffset>
            <feGaussianBlur stdDeviation="2" in="shadowOffsetOuter1" result="shadowBlurOuter1"></feGaussianBlur>
            <feColorMatrix values="0 0 0 0 0.211764706   0 0 0 0 0.262745098   0 0 0 0 0.360784314  0 0 0 0.15 0" type="matrix" in="shadowBlurOuter1"></feColorMatrix>
        </filter>
    </defs>
    <g id="Dashboard" stroke="none" stroke-width="1" fill="none" fill-rule="evenodd">
        <g id="00-Menu-交互备份" transform="translate(-397.000000, -130.000000)">
            <g id="编组-5" transform="translate(397.000000, 130.000000)">
                <g id="椭圆形">
                    <use fill="black" fill-opacity="1" filter="url(#filter-3)" xlink:href="#path-2"></use>
                    <use fill="url(#linearGradient-1)" fill-rule="evenodd" xlink:href="#path-2"></use>
                </g>
                <circle id="椭圆形" fill="#FFFFFF" opacity="0.5" cx="40" cy="40" r="18"></circle>
                <g id="椭圆形">
                    <use fill="black" fill-opacity="1" filter="url(#filter-5)" xlink:href="#path-4"></use>
                    <use fill="#FFFFFF" fill-rule="evenodd" xlink:href="#path-4"></use>
                </g>
                <g id="编组-15" transform="translate(30.000000, 30.000000)">
                    <path d="M9.37575757,2 C11.5909091,2 13.5,3.2825 14.4181818,5.1425 C16.6917693,5.27807037 18.6217149,6.68747722 19.4972316,8.6690085 C19.1312784,8.2555857 18.5960934,7.99480559 18,7.99480559 L18,7.99480559 L10,7.99480559 C8.8954305,7.99480559 8,8.89023609 8,9.99480559 L8,9.99480559 L8,15 C8,16.1045695 8.8954305,17 10,17 L10,17 L14.418,16.999 L14.3757576,17 L5,17 C2.21121212,16.8478125 0,14.66125 0,12 C0,9.74375 1.58909091,7.836875 3.77121212,7.215 C3.98181818,4.3009375 6.40787878,2 9.37575757,2 Z" id="形状结合" fill="#52A0FF" fill-rule="nonzero"></path>
                    <polyline id="路径" stroke="#52A0FF" stroke-width="2" points="13.1745386 15.8401964 10.4040531 12.8401964 13.1745386 9.84019643"></polyline>
                    <polyline id="路径" stroke="#52A0FF" stroke-width="2" points="15.8588923 15.8401964 18.6293778 12.8401964 15.8588923 9.84019643"></polyline>
                </g>
            </g>
        </g>
    </g>
</svg>
